X: 25754
T: Mary O'Neill's Fancy
R: reel
M: 4/4
K: Gmajor
dBAB ~G2GE|DG~G2 DGGB|dBAB G2GA|Bee^d efge|
dBAB ~G2GE|DG~G2 DEGB|dBAB ~G2GA|Bee^d e2ge||
dB~B2 dBeB|dB~B2 d2ge|dB~B2 g2fg|efdB BAB^c|
dB~B2 ~g2fg|edef g2ga|(3bag (3agf gfed|(3efg af gfge||
dB~B2 dBeB|dB~B2 d2ge|dB~B2 ~g2fg|efdB ABc^c|
dB~B2 g2fg|e^def gfga|(3bag af gfed|(3efg af g2ge||

